src/img/reply.svg

<?xml version="1.0" encoding="UTF-8" standalone="no"?>
<!DOCTYPE svg PUBLIC "-//W3C//DTD SVG 1.1//EN" "http://www.w3.org/Graphics/SVG/1.1/DTD/svg11.dtd">
<svg width="100%" height="100%" viewBox="0 0 20 20" version="1.1" xmlns="http://www.w3.org/2000/svg" xmlns:xlink="http://www.w3.org/1999/xlink" xml:space="preserve" xmlns:serif="http://www.serif.com/" style="fill-rule:evenodd;clip-rule:evenodd;stroke-linejoin:round;stroke-miterlimit:2;">
    <path d="M15,17L15,14.01C15,14.007 15,14.003 15,14C15,11.806 13.194,10 11,10L8,10L8,15L2,9L8,3L8,8L11,8C14.292,8 17,10.708 17,14L17,17L15,17Z" style="fill:rgb(247,177,67);fill-rule:nonzero;"/>
</svg>

<svg xmlns="http://www.w3.org/2000/svg" viewBox="0 0 20 20"><path d="M15 17v-2.99A4 4 0 0 0 11 10H8v5L2 9l6-6v5h3a6 6 0 0 1 6 6v3h-2z"/></svg>
